src/assets/icons/default/IconSettings.svg

<svg width="20" height="20" viewBox="0 0 24 24" fill="none" xmlns="http://www.w3.org/2000/svg">
<g clip-path="url(#clip0_64_19305)">
<path d="M1.317 9.394L3.197 9.155C3.352 8.678 3.543 8.218 3.766 7.781L2.605 6.286C2.135 5.681 2.19 4.827 2.727 4.307L4.302 2.732C4.827 2.19 5.681 2.136 6.287 2.605L7.78 3.766C8.217 3.543 8.677 3.352 9.155 3.197L9.394 1.32C9.484 0.567 10.123 0 10.88 0H13.12C13.877 0 14.516 0.567 14.606 1.317L14.845 3.197C15.323 3.352 15.783 3.542 16.22 3.766L17.714 2.605C18.318 2.136 19.172 2.19 19.693 2.727L21.268 4.301C21.81 4.827 21.865 5.681 21.395 6.287L20.234 7.781C20.458 8.218 20.648 8.678 20.803 9.155L22.68 9.394C23.433 9.484 24 10.123 24 10.88V13.12C24 13.877 23.433 14.516 22.683 14.606L20.803 14.845C20.648 15.322 20.457 15.782 20.234 16.219L21.395 17.714C21.865 18.319 21.81 19.173 21.273 19.693L19.698 21.268C19.172 21.809 18.319 21.863 17.713 21.394L16.219 20.233C15.782 20.457 15.322 20.648 14.845 20.802L14.606 22.678C14.516 23.433 13.877 24 13.12 24H10.88C10.123 24 9.484 23.433 9.394 22.683L9.155 20.803C8.678 20.648 8.218 20.457 7.781 20.234L6.286 21.395C5.681 21.865 4.827 21.81 4.307 21.273L2.732 19.698C2.19 19.172 2.135 18.319 2.605 17.713L3.766 16.219C3.542 15.782 3.351 15.322 3.197 14.845L1.321 14.606C0.567999 14.516 0.000999451 13.877 0.000999451 13.12V10.88C0 10.123 0.566999 9.484 1.317 9.394ZM12 17C14.757 17 17 14.757 17 12C17 9.243 14.757 7 12 7C9.243 7 7 9.243 7 12C7 14.757 9.243 17 12 17Z" fill="currentColor"/>
</g>
<defs>
<clipPath id="clip0_64_19305">
<rect width="24" height="24" fill="white" transform="matrix(-1 0 0 1 24 0)"/>
</clipPath>
</defs>
</svg>

<svg xmlns="http://www.w3.org/2000/svg" width="20" height="20" fill="none" viewBox="0 0 24 24">
  <g clip-path="url(#a)">
    <path fill="currentcolor" d="m1.32 9.4 1.88-.25q.23-.7.57-1.37L2.6 6.28c-.48-.6-.42-1.45.12-1.97L4.3 2.73a1.5 1.5 0 0 1 1.99-.12l1.49 1.16q.66-.34 1.37-.57l.24-1.88A1.5 1.5 0 0 1 10.88 0h2.24c.76 0 1.4.57 1.49 1.32l.24 1.88q.7.23 1.37.57l1.5-1.16c.6-.47 1.45-.42 1.97.12l1.58 1.57c.54.53.6 1.38.13 1.99l-1.17 1.5q.35.65.57 1.36l1.88.24A1.5 1.5 0 0 1 24 10.88v2.24c0 .76-.57 1.4-1.32 1.49l-1.88.24q-.22.7-.57 1.37l1.16 1.5c.47.6.42 1.45-.12 1.97l-1.57 1.58a1.5 1.5 0 0 1-1.99.12l-1.5-1.16q-.65.35-1.37.57l-.23 1.88A1.5 1.5 0 0 1 13.12 24h-2.24a1.5 1.5 0 0 1-1.49-1.32l-.24-1.88a10 10 0 0 1-1.37-.57l-1.5 1.16c-.6.47-1.45.42-1.97-.12L2.73 19.7a1.5 1.5 0 0 1-.12-1.99l1.16-1.5q-.34-.65-.57-1.37l-1.88-.23A1.5 1.5 0 0 1 0 13.12v-2.24c0-.76.57-1.4 1.32-1.49M12 17a5 5 0 1 0-.01-10.01A5 5 0 0 0 12 17"/>
  </g>
  <defs>
    <clipPath id="a">
      <path fill="#fff" d="M24 0H0v24h24z"/>
    </clipPath>
  </defs>
</svg>
